_site/assets/handwave.svg

<svg fill="none" height="109" viewBox="0 0 125 109" width="125" xmlns="http://www.w3.org/2000/svg"><g fill="#000"><path d="m122.146 43.7024c-.095-.001-.191-.007-.285-.0179-.586-.0745-1.117-.3793-1.478-.8469-.361-.4667-.521-1.0585-.445-1.6443.919-6.3108-.687-12.7288-4.469-17.863-3.783-5.1342-9.438-8.5697-15.7374-9.5615-1.2173-.1658-2.0702-1.2878-1.9044-2.5061.1659-1.2173 1.2868-2.07013 2.5048-1.90432 7.462 1.15372 14.169 5.20182 18.666 11.26732 4.496 6.0665 6.42 13.6601 5.354 21.1346-.142 1.11-1.087 1.9421-2.206 1.9421z"/><path d="m112.612 42.4091c-.142 0-.284-.0139-.423-.0417-1.206-.2333-1.994-1.399-1.762-2.6043.829-3.8366-.045-7.8438-2.398-10.9854-2.365-3.0263-5.926-4.879-9.7626-5.0778-.6007-.0248-1.1656-.2919-1.5658-.7407-.4011-.4488-.6027-1.0406-.559-1.6402.0427-.5998.3267-1.1568.7874-1.544.4597-.3862 1.0574-.5709 1.6551-.5093 5.1079.28 9.8419 2.7632 12.9749 6.8051 3.134 4.1472 4.313 9.4505 3.234 14.5341-.2 1.0465-1.116 1.8032-2.181 1.8042z"/><path d="m23.8532 108.991c-.1221.001-.2443-.01-.3644-.031-7.4259-1.372-14.01271-5.616-18.33174-11.8112-4.319035-6.1946-6.021788-13.8429-4.740974-21.2856.21248-1.1934 1.341384-1.9967 2.537844-1.807 1.19741.1896 2.02251 1.3026 1.85472 2.5031-1.10411 6.2851.31376 12.7517 3.94564 17.9982 3.63301 5.2465 9.18811 8.8485 15.45921 10.0255 1.1389.192 1.9401 1.223 1.8468 2.374-.0943 1.15-1.0524 2.038-2.2072 2.043z"/><path d="m25.7371 99.1213c-.0755 0-.1509 0-.2224-.0109-5.0966-.4319-9.7552-3.0532-12.7706-7.1837-3.01149-4.2376-4.03812-9.5714-2.81272-14.6232.11122-.5927.45872-1.114.96112-1.4456.5034-.3317 1.12-.4449 1.7078-.3138.5888.1311 1.0981.4954 1.4129 1.0098.3147.5133.4071 1.1329.2571 1.7167-.9383 3.8117-.1797 7.8419 2.0791 11.0517 2.2767 3.0949 5.7837 5.0498 9.6121 5.3597 1.2292.0615 2.1745 1.1071 2.1129 2.3353-.0606 1.2282-1.1061 2.1744-2.3353 2.1128z"/><path d="m60.1394 105.171c-4.6538-.047-9.225-1.24-13.3068-3.474-6.3406-3.3075-9.786-6.9931-16.478-21.1159-3.0888-6.5093-3.643-7.7556-4.7857-10.3291-.6673-1.4795-1.5142-3.4007-3.1674-7.0347l-.001.001c-1.7713-3.9231-3.7868-7.7307-6.0357-11.4006-1.5122-2.5378-3.0741-5.158-5.042-9.1764-1.1716-2.3928-4.28138-8.7494 1.0456-11.739 1.7107-.9611 6.1409-2.4823 10.2307 4.1362 2.0682 3.3362 3.2268 5.4779 4.2476 7.3662 1.2471 2.3889 2.6341 4.7023 4.1543 6.9274-.2978-.7764-.5987-1.5568-.8896-2.3154-1.4238-3.7006-3.0382-7.8954-4.5554-12.2485l-.6672-1.95c-.7963-2.3174-1.4298-4.1482-2.8664-7.8359-.8539-2.1972-2.0791-6.3387-.6802-9.4415v.001c.6404-1.4337 1.8409-2.5418 3.3201-3.0652 2.809-1.0316 6.855-.834 10.1662 6.005 3.9607 8.1697 5.1403 10.9913 7.2709 16.4244.692 1.7594 1.6809 3.9695 2.6976 6.0765-.5362-2.3244-1.2809-5.2425-2.2976-8.8567v.001c-2.238-6.6473-3.8028-13.5023-4.6705-20.4615-.8897-6.53425 1.0008-10.85125 5.0528-11.538554 6.7566-1.189486 9.0562 6.294014 10.1593 9.870334l.14.44482c1.8885 6.0607 2.7602 9.5239 3.6857 13.1886.4577 1.822.9382 3.7324 1.5767 6.0874.2353.8787.5252 2.0265.8469 3.3003.1181.4736.2562 1.0207.4071 1.6125-.0427-.5253-.0914-1.0763-.145-1.6612h.001c-.7496-7.1666-.8847-14.384-.4021-21.5735.5223-8.34425 4.6457-9.61515 6.3962-9.773 4.6904-.39616 7.13 4.29718 7.829 8.8676l.0864.5669c1.0673 6.2333 1.7395 12.5273 2.0156 18.8452.2065 6.1161.8012 12.2137 1.7792 18.2553.5799 3.7611 1.4626 7.4696 2.6402 11.0886.5342-1.6522 1.0763-3.9566 1.4208-5.4362.42-1.7951.7824-3.3361 1.1637-4.4372 3.1137-8.8963 6.8946-12.3148 8.3739-13.3712 1.6661-1.1964 6.7279-3.648 10.0457-.7069l-.001.001c.802.6643 1.375 1.5608 1.643 2.5667.267 1.0048.213 2.0682-.152 3.0423-.51 1.3057-.999 2.4594-1.473 3.5784-1.2687 2.8226-2.3103 5.7429-3.1135 8.7323-1.4129 5.2692-2.521 10.6161-3.3184 16.0134-.554 4.196-1.4972 8.3323-2.8178 12.3544-2.9777 8.934-6.6275 15.0305-16.4869 19.7344v-.001c-4.6606 2.4-9.8027 3.717-15.0434 3.853zm-44.6722-70.6621c-.3267.0059-.6454.1002-.9234.273-1.1785.6672-.9541 2.371.7745 5.9028 1.8905 3.8544 3.4027 6.3983 4.8711 8.8587h-.001c2.3293 3.8117 4.4205 7.7645 6.2612 11.8344 1.6612 3.6498 2.522 5.5821 3.1824 7.0685 1.1319 2.5507 1.6839 3.7809 4.742 10.2308 6.5649 13.8449 9.4631 16.4452 14.5142 19.0785 7.8577 4.0964 15.1486 3.9634 24.3914-.4448 8.4713-4.043 11.5204-9.1386 14.1855-17.1254 1.2461-3.7899 2.1327-7.688 2.6491-11.6438.8241-5.5462 1.9639-11.0411 3.4116-16.4582.8549-3.193 1.962-6.3128 3.3122-9.3302.4577-1.0832.9324-2.2022 1.4238-3.4672.1073-.2711-.2025-.5759-.2998-.6673-.7943-.694-3.2784.1202-4.5059.9989-.8896.6364-4.0033 3.3183-6.7586 11.2246-.3048.8628-.6673 2.38-1.0346 3.9856-1.4814 6.3118-2.4465 9.9099-5.1731 10.3667-3.3669.558-5.3019-3.5298-7.5977-16.2467h-.002c-1.0118-6.2175-1.6273-12.4935-1.8438-18.7895-.271-6.1797-.9313-12.3356-1.9748-18.4332l-.0864-.5649c-.2115-1.37918-1.2252-5.26438-3.0293-5.11543-1.2074.10922-2.1576 2.36607-2.3602 5.61793-.4756 6.9671-.3435 13.9631.3942 20.9063 1.0654 11.6656.5779 14.9966-2.2727 15.4971-2.8069.5163-3.7253-2.0126-6.7348-13.9601-.3137-1.245-.5957-2.366-.83-3.225-.6424-2.3839-1.1299-4.317-1.5946-6.1629-.9472-3.759-1.7663-7.0057-3.621-12.9482l-.142-.4646c-1.3831-4.50665-2.7444-7.21927-5.164-6.79936-1.532.26211-1.7921 3.58343-1.388 6.55916.835 6.72 2.3432 13.3393 4.5018 19.7584 4.9148 17.479 3.8185 19.0468 3.0939 20.0854-.4488.6423-1.1607 1.0504-1.9421 1.112h-.1271c-3.0761 0-7.0276-8.4068-9.8198-15.5129-2.088-5.318-3.2408-8.0822-7.1328-16.1066-2.2509-4.633-3.9189-4.0301-4.6278-3.7632h.001c-.3615.1102-.6553.3734-.8033.7209-.42 2.0314-.1499 4.1454.7695 6.005 1.4705 3.7679 2.1148 5.6356 2.9309 8.0066l.6672 1.9352c1.4943 4.2834 3.096 8.4515 4.5107 12.1122 4.1544 10.7958 5.1421 13.3623 2.4912 14.6253-1.1716.56-2.7673 1.2967-8.5448-6.9254-1.953-2.7434-3.7163-5.6159-5.2773-8.5984-.9899-1.8349-2.1128-3.9121-4.0768-7.0744-1.4863-2.4028-2.6312-2.936-3.3897-2.936z"/></g></svg>

<svg width="125" height="109" viewBox="0 0 125 109" fill="none" xmlns="http://www.w3.org/2000/svg">
<path d="M122.146 43.7024C122.051 43.7014 121.955 43.6954 121.861 43.6845C121.275 43.61 120.744 43.3052 120.383 42.8376C120.022 42.3709 119.862 41.7791 119.938 41.1933C120.857 34.8825 119.251 28.4645 115.469 23.3303C111.686 18.1961 106.031 14.7606 99.7316 13.7688C98.5143 13.603 97.6614 12.481 97.8272 11.2627C97.9931 10.0454 99.114 9.19257 100.332 9.35838C107.794 10.5121 114.501 14.5602 118.998 20.6257C123.494 26.6922 125.418 34.2858 124.352 41.7603C124.21 42.8703 123.265 43.7024 122.146 43.7024Z" fill="black"/>
<path d="M112.612 42.4091C112.47 42.4091 112.328 42.3952 112.189 42.3674C110.983 42.1341 110.195 40.9684 110.427 39.7631C111.256 35.9265 110.382 31.9193 108.029 28.7777C105.664 25.7514 102.103 23.8987 98.2664 23.6999C97.6657 23.6751 97.1008 23.408 96.7006 22.9592C96.2995 22.5104 96.0979 21.9186 96.1416 21.319C96.1843 20.7192 96.4683 20.1622 96.929 19.775C97.3887 19.3888 97.9864 19.2041 98.5841 19.2657C103.692 19.5457 108.426 22.0289 111.559 26.0708C114.693 30.218 115.872 35.5213 114.793 40.6049C114.593 41.6514 113.677 42.4081 112.612 42.4091Z" fill="black"/>
<path d="M23.8532 108.991C23.7311 108.992 23.6089 108.981 23.4888 108.96C16.0629 107.588 9.47609 103.344 5.15706 97.1488C0.838025 90.9542 -0.864728 83.3059 0.416086 75.8632C0.628566 74.6698 1.75747 73.8665 2.95393 74.0562C4.15134 74.2458 4.97644 75.3588 4.80865 76.5593C3.70454 82.8444 5.12241 89.311 8.75429 94.5575C12.3873 99.804 17.9424 103.406 24.2135 104.583C25.3524 104.775 26.1536 105.806 26.0603 106.957C25.966 108.107 25.0079 108.995 23.8531 109L23.8532 108.991Z" fill="black"/>
<path d="M25.7371 99.1213C25.6616 99.1213 25.5862 99.1213 25.5147 99.1104C20.4181 98.6785 15.7595 96.0572 12.7441 91.9267C9.73261 87.6891 8.70598 82.3553 9.93138 77.3035C10.0426 76.7108 10.3901 76.1895 10.8925 75.8579C11.3959 75.5262 12.0125 75.413 12.6003 75.5441C13.1891 75.6752 13.6984 76.0395 14.0132 76.5539C14.3279 77.0672 14.4203 77.6868 14.2703 78.2706C13.332 82.0823 14.0906 86.1125 16.3494 89.3223C18.6261 92.4172 22.1331 94.3721 25.9615 94.682C27.1907 94.7435 28.136 95.7891 28.0744 97.0173C28.0138 98.2455 26.9683 99.1917 25.7391 99.1301L25.7371 99.1213Z" fill="black"/>
<path d="M60.1394 105.171C55.4856 105.124 50.9144 103.931 46.8326 101.697C40.492 98.3895 37.0466 94.7039 30.3546 80.5811C27.2658 74.0718 26.7116 72.8255 25.5689 70.252C24.9016 68.7725 24.0547 66.8513 22.4015 63.2173L22.4005 63.2183C20.6292 59.2952 18.6137 55.4876 16.3648 51.8177C14.8526 49.2799 13.2907 46.6597 11.3228 42.6413C10.1512 40.2485 7.04142 33.8919 12.3684 30.9023C14.0791 29.9412 18.5093 28.42 22.5991 35.0385C24.6673 38.3747 25.8259 40.5164 26.8467 42.4047C28.0938 44.7936 29.4808 47.107 31.001 49.3321C30.7032 48.5557 30.4023 47.7753 30.1114 47.0167C28.6876 43.3161 27.0732 39.1213 25.556 34.7682L24.8888 32.8182C24.0925 30.5008 23.459 28.67 22.0224 24.9823C21.1685 22.7851 19.9433 18.6436 21.3422 15.5408V15.5418C21.9826 14.1081 23.1831 13 24.6623 12.4766C27.4713 11.445 31.5173 11.6426 34.8285 18.4816C38.7892 26.6513 39.9688 29.4729 42.0994 34.906C42.7914 36.6654 43.7803 38.8755 44.797 40.9825C44.2608 38.6581 43.5161 35.74 42.4994 32.1258V32.1268C40.2614 25.4795 38.6966 18.6245 37.8289 11.6653C36.9392 5.13105 38.8297 0.81405 42.8817 0.126746C49.6383 -1.06274 51.9379 6.42076 53.041 9.99708L53.181 10.4419C55.0695 16.5026 55.9412 19.9658 56.8667 23.6305C57.3244 25.4525 57.8049 27.3629 58.4434 29.7179C58.6787 30.5966 58.9686 31.7444 59.2903 33.0182C59.4084 33.4918 59.5465 34.0389 59.6974 34.6307C59.6547 34.1054 59.606 33.5544 59.5524 32.9695H59.5534C58.8038 25.8029 58.6687 18.5855 59.1513 11.396C59.6736 3.05175 63.797 1.78085 65.5475 1.623C70.2379 1.22684 72.6775 5.92018 73.3765 10.4906L73.4629 11.0575C74.5302 17.2908 75.2024 23.5848 75.4785 29.9027C75.685 36.0188 76.2797 42.1164 77.2577 48.158C77.8376 51.9191 78.7203 55.6276 79.8979 59.2466C80.4321 57.5944 80.9742 55.29 81.3187 53.8104C81.7387 52.0153 82.1011 50.4743 82.4824 49.3732C85.5961 40.4769 89.377 37.0584 90.8563 36.002C92.5224 34.8056 97.5842 32.354 100.902 35.2951L100.901 35.2961C101.703 35.9604 102.276 36.8569 102.544 37.8628C102.811 38.8676 102.757 39.931 102.392 40.9051C101.882 42.2108 101.393 43.3645 100.919 44.4835C99.6503 47.3061 98.6087 50.2264 97.8055 53.2158C96.3926 58.485 95.2845 63.8319 94.4871 69.2292C93.9331 73.4252 92.9899 77.5615 91.6693 81.5836C88.6916 90.5176 85.0418 96.6141 75.1824 101.318V101.317C70.5218 103.717 65.3797 105.034 60.139 105.17L60.1394 105.171ZM15.4672 34.5089C15.1405 34.5148 14.8218 34.6091 14.5438 34.7819C13.3653 35.4491 13.5897 37.1529 15.3183 40.6847C17.2088 44.5391 18.721 47.083 20.1894 49.5434H20.1884C22.5177 53.3551 24.6089 57.3079 26.4496 61.3778C28.1108 65.0276 28.9716 66.9599 29.632 68.4463C30.7639 70.997 31.3159 72.2272 34.374 78.6771C40.9389 92.522 43.8371 95.1223 48.8882 97.7556C56.7459 101.852 64.0368 101.719 73.2796 97.3108C81.7509 93.2678 84.8 88.1722 87.4651 80.1854C88.7112 76.3955 89.5978 72.4974 90.1142 68.5416C90.9383 62.9954 92.0781 57.5005 93.5258 52.0834C94.3807 48.8904 95.4878 45.7706 96.838 42.7532C97.2957 41.67 97.7704 40.551 98.2618 39.286C98.3691 39.0149 98.0593 38.7101 97.962 38.6187C97.1677 37.9247 94.6836 38.7389 93.4561 39.6176C92.5665 40.254 89.4528 42.9359 86.6975 50.8422C86.3927 51.705 86.0302 53.2222 85.6629 54.8278C84.1815 61.1396 83.2164 64.7377 80.4898 65.1945C77.1229 65.7525 75.1879 61.6647 72.8921 48.9478H72.8901C71.8783 42.7303 71.2628 36.4543 71.0463 30.1583C70.7753 23.9786 70.115 17.8227 69.0715 11.7251L68.9851 11.1602C68.7736 9.78102 67.7599 5.89582 65.9558 6.04477C64.7484 6.15399 63.7982 8.41084 63.5956 11.6627C63.12 18.6298 63.2521 25.6258 63.9898 32.569C65.0552 44.2346 64.5677 47.5656 61.7171 48.0661C58.9102 48.5824 57.9918 46.0535 54.9823 34.106C54.6686 32.861 54.3866 31.74 54.1523 30.881C53.5099 28.4971 53.0224 26.564 52.5577 24.7181C51.6105 20.9591 50.7914 17.7124 48.9367 11.7699L48.7947 11.3053C47.4116 6.79865 46.0503 4.08603 43.6307 4.50594C42.0987 4.76805 41.8386 8.08937 42.2427 11.0651C43.0777 17.7851 44.5859 24.4044 46.7445 30.8235C51.6593 48.3025 50.563 49.8703 49.8384 50.9089C49.3896 51.5512 48.6777 51.9593 47.8963 52.0209H47.7692C44.6931 52.0209 40.7416 43.6141 37.9494 36.508C35.8614 31.19 34.7086 28.4258 30.8166 20.4014C28.5657 15.7684 26.8977 16.3713 26.1888 16.6382H26.1898C25.8283 16.7484 25.5345 17.0116 25.3865 17.3591C24.9665 19.3905 25.2366 21.5045 26.156 23.3641C27.6265 27.132 28.2708 28.9997 29.0869 31.3707L29.7541 33.3059C31.2484 37.5893 32.8501 41.7574 34.2648 45.4181C38.4192 56.2139 39.4069 58.7804 36.756 60.0434C35.5844 60.6034 33.9887 61.3401 28.2112 53.118C26.2582 50.3746 24.4949 47.5021 22.9339 44.5196C21.944 42.6847 20.8211 40.6075 18.8571 37.4452C17.3708 35.0424 16.2259 34.5092 15.4674 34.5092L15.4672 34.5089Z" fill="black"/>
</svg>
